X: 41439
T: Two Days To Go
R: reel
M: 4/4
K: Gmajor
G3d eGEG|dedB AdBA|~G2dg eGBd-|dBABA D{c/}BA|
GDEG d3e|dDBd {c}AG{A/}EG|{A/}EDGB A~G3|dGAB A3z
G3d !slide!eGEG|d3B AdBA|~G2dg !slide!eGBd|eGdGBA{c/}BA|
GDEG d3!slide!e|dDBd {c}AG{A/}EG|{A/}EDGB A~G3|dGAB AG~G2|
b2ag ag2d|eGeg edBd|d2bg ag2d|eG eg a3!slide!b|
g/a/b aga~g3|eGdB AGEG|EDEB A~G3|dGAB AG{A/}GE|
b2ag ag2d|eGeg edBd|!slide!bc' b/a/g ag2 d|eGega3!slide!b|
abaga~g3|eGdBAGEG|EDGBA~G3|dGAB ADBA|

